alternatives/kde-colorscheme/16/apps/preferences-system-network.svg

<?xml version="1.0" encoding="UTF-8" standalone="no"?>
<!-- Created with Inkscape (http://www.inkscape.org/) -->

<svg
   width="16"
   height="16"
   viewBox="0 0 16 16"
   version="1.1"
   id="svg5"
   inkscape:version="1.2.2 (b0a8486541, 2022-12-01)"
   sodipodi:docname="preferences-system-network.svg"
   xmlns:inkscape="http://www.inkscape.org/namespaces/inkscape"
   xmlns:sodipodi="http://sodipodi.sourceforge.net/DTD/sodipodi-0.dtd"
   xmlns:xlink="http://www.w3.org/1999/xlink"
   xmlns="http://www.w3.org/2000/svg"
   xmlns:svg="http://www.w3.org/2000/svg">
  <sodipodi:namedview
     id="namedview7"
     pagecolor="#ffffff"
     bordercolor="#000000"
     borderopacity="0.25"
     inkscape:showpageshadow="2"
     inkscape:pageopacity="0.0"
     inkscape:pagecheckerboard="0"
     inkscape:deskcolor="#d1d1d1"
     inkscape:document-units="px"
     showgrid="false"
     inkscape:zoom="50.1875"
     inkscape:cx="8"
     inkscape:cy="8"
     inkscape:window-width="1920"
     inkscape:window-height="1000"
     inkscape:window-x="0"
     inkscape:window-y="0"
     inkscape:window-maximized="1"
     inkscape:current-layer="svg5" />
  <defs
     id="defs2">
    <style
       id="current-color-scheme"
       type="text/css">
         .ColorScheme-Highlight { color:#3daee9; }
     </style>
    <linearGradient
       gradientTransform="matrix(0,0.29652528,0.29652528,0,1.6526413,0.7380921)"
       gradientUnits="userSpaceOnUse"
       xlink:href="#linearGradient1127"
       id="j"
       y2="23"
       x2="47.5"
       y1="23"
       x1="3.5" />
    <linearGradient
       inkscape:collect="always"
       id="linearGradient1127">
      <stop
         style="stop-color:#ffffff;stop-opacity:1;"
         offset="0"
         id="stop1123" />
      <stop
         style="stop-color:#ffffff;stop-opacity:0;"
         offset="1"
         id="stop1125" />
    </linearGradient>
    <linearGradient
       gradientTransform="matrix(0.20967504,0.20967504,-0.20967504,0.20967504,7.9482546,-2.8697957)"
       gradientUnits="userSpaceOnUse"
       xlink:href="#linearGradient1127"
       id="k"
       y2="27.243"
       x2="4.2870002"
       y1="23.707001"
       x1="46.006001" />
    <linearGradient
       gradientTransform="matrix(0.20967504,-0.20967504,-0.20967504,-0.20967504,7.8930652,18.495799)"
       gradientUnits="userSpaceOnUse"
       xlink:href="#linearGradient1127"
       id="l"
       y2="24.414"
       x2="2.8729999"
       y1="25.827999"
       x1="48.126999" />
    <linearGradient
       gradientTransform="matrix(0.29652528,0,0,-0.29652528,0.91067466,15.119773)"
       gradientUnits="userSpaceOnUse"
       xlink:href="#linearGradient1127"
       id="m"
       y2="23"
       x2="47.5"
       y1="23"
       x1="4.4899998" />
  </defs>
  <path
     id="path530"
     style="fill:currentColor;fill-opacity:1;stroke-width:0.5;stroke-linecap:round;stroke-linejoin:round"
     class="ColorScheme-Highlight"
     d="M 6 0 C 1.4494094 0 0 1.469913 0 6 L 0 10 C 0 14.530087 1.4494094 16 6 16 L 10 16 C 14.550591 16 16 14.530086 16 10 L 16 6 C 16 1.469913 14.550591 0 10 0 L 6 0 z " />
  <path
     id="path1506-3-7"
     style="fill:#ffffff;stroke-linecap:round;stroke-linejoin:round"
     d="m 2.9995353,2.9998467 a 1,1 0 0 0 -1,1 1,1 0 0 0 1,1 1,1 0 0 0 1,-1 1,1 0 0 0 -1,-1 z m 11.0000007,3 a 1,1 0 0 0 -1,1 1,1 0 0 0 1,1 1,1 0 0 0 1,-1 1,1 0 0 0 -1,-1 z M 2.9995353,10.999847 a 1,1 0 0 0 -1,1 1,1 0 0 0 1,1 1,1 0 0 0 1,-1 1,1 0 0 0 -1,-1 z m 6,2 a 1,1 0 0 0 -1,1 1,1 0 0 0 1,1 1,1 0 0 0 1,-1 1,1 0 0 0 -1,-1 z" />
  <path
     style="color:#000000;opacity:0.8;fill:url(#j);fill-opacity:1;stroke-linecap:round;stroke-linejoin:round;-inkscape-stroke:none"
     d="M 8.4629952,1.4250261 A 0.5,0.5 0 0 0 7.9649483,1.9269792 0.5,0.5 0 0 0 8.4688545,2.4250261 c 0.497678,-0.00255 0.972366,0.3848398 1.396484,1.2128907 0.4241185,0.8280508 0.7297435,2.027621 0.8574225,3.3203124 0.255357,2.5853828 -0.256271,5.5413528 -1.4199225,6.7734378 a 0.5,0.5 0 0 0 0.01953,0.707031 0.5,0.5 0 0 0 0.7070315,-0.02148 C 11.597635,12.756755 11.992494,9.631046 11.718855,6.860573 11.582036,5.4753364 11.264519,4.1776023 10.754011,3.1808855 10.243503,2.1841687 9.4733445,1.419855 8.4629952,1.4250261 Z"
     id="path105" />
  <path
     style="color:#000000;opacity:0.8;fill:url(#k);fill-opacity:1;stroke-linecap:round;stroke-linejoin:round;-inkscape-stroke:none"
     d="M 3.5860421,3.3021762 A 0.5,0.5 0 0 0 3.0508858,3.7650668 c -0.081115,1.1335835 0.3909554,2.3333405 1.1230469,3.4902343 0.7320914,1.1568939 1.7424911,2.2747259 2.8359375,3.2031249 1.0934463,0.928398 2.2648173,1.668111 3.3632808,2.044922 1.098465,0.376811 2.223362,0.394991 2.960939,-0.341797 a 0.5,0.5 0 0 0 0,-0.707031 0.5,0.5 0 0 0 -0.707032,0 C 12.259234,11.821951 11.617363,11.871671 10.69737,11.556083 9.7773785,11.240494 8.6785157,10.562627 7.6563545,9.694753 6.6341934,8.826882 5.6843995,7.7706435 5.0196358,6.7201449 4.3548721,5.6696463 3.9922469,4.6295149 4.0489327,3.8373324 A 0.5,0.5 0 0 0 3.5860421,3.3021762 Z"
     id="path109" />
  <path
     style="color:#000000;opacity:0.8;fill:url(#l);fill-opacity:1;stroke-linecap:round;stroke-linejoin:round;-inkscape-stroke:none"
     d="M 12.314558,2.9445574 C 11.871584,2.843766 11.376888,2.8644108 10.886823,2.9758074 9.9066935,3.1986005 8.8429201,3.750751 7.8008858,4.5031511 5.7168172,6.0079514 3.7203058,8.306204 3.1270577,10.630104 a 0.5,0.5 0 0 0 0.3613281,0.607422 0.5,0.5 0 0 0 0.6074219,-0.361328 C 4.5908395,8.937035 6.4566286,6.7073937 8.3868233,5.313698 9.3519205,4.6168501 10.332487,4.1270347 11.10948,3.9504168 c 0.776993,-0.176618 1.249056,-0.070178 1.529297,0.2988281 a 0.5,0.5 0 0 0 0.701172,0.095703 0.5,0.5 0 0 0 0.0957,-0.6992187 C 13.149384,3.2687875 12.757533,3.0453487 12.314558,2.9445574 Z"
     id="path113" />
  <path
     style="color:#000000;fill:url(#m);fill-opacity:1;stroke-linecap:round;stroke-linejoin:round;-inkscape-stroke:none"
     d="M 6.5254952,5.1125261 C 5.2004173,5.2930898 3.9899483,5.6411643 3.0801827,6.173073 2.1704171,6.7049817 1.5044445,7.5093693 1.6075264,8.48362 A 0.5,0.5 0 0 0 2.1563545,8.928932 0.5,0.5 0 0 0 2.6016671,8.378151 C 2.5509619,7.8989249 2.8497472,7.4656986 3.5840889,7.0363542 4.3184306,6.6070099 5.4286838,6.2705831 6.6602608,6.1027605 9.1234148,5.7671152 12.077077,6.1278535 13.611433,7.2297136 A 0.5,0.5 0 0 0 14.308699,7.1144792 0.5,0.5 0 0 0 14.193465,6.4172136 C 12.276401,5.0405208 9.1756515,4.7513987 6.5254952,5.1125261 Z"
     id="path117" />
</svg>

<?xml version="1.0" encoding="UTF-8" standalone="no"?>
<!-- Created with Inkscape (http://www.inkscape.org/) -->

<svg
   width="16"
   height="16"
   viewBox="0 0 16 16"
   version="1.1"
   id="svg5"
   inkscape:version="1.2.1 (9c6d41e410, 2022-07-14)"
   sodipodi:docname="preferences-system-network.svg"
   xmlns:inkscape="http://www.inkscape.org/namespaces/inkscape"
   xmlns:sodipodi="http://sodipodi.sourceforge.net/DTD/sodipodi-0.dtd"
   xmlns:xlink="http://www.w3.org/1999/xlink"
   xmlns="http://www.w3.org/2000/svg"
   xmlns:svg="http://www.w3.org/2000/svg">
  <sodipodi:namedview
     id="namedview7"
     pagecolor="#ffffff"
     bordercolor="#000000"
     borderopacity="0.25"
     inkscape:showpageshadow="2"
     inkscape:pageopacity="0.0"
     inkscape:pagecheckerboard="0"
     inkscape:deskcolor="#d1d1d1"
     inkscape:document-units="px"
     showgrid="false"
     inkscape:zoom="53.5"
     inkscape:cx="8"
     inkscape:cy="8.0186916"
     inkscape:window-width="1920"
     inkscape:window-height="1014"
     inkscape:window-x="0"
     inkscape:window-y="32"
     inkscape:window-maximized="1"
     inkscape:current-layer="svg5" />
  <defs
     id="defs2">
    <linearGradient
       inkscape:collect="always"
       xlink:href="#linearGradient1333"
       id="linearGradient3692"
       x1="16"
       y1="16"
       x2="0"
       y2="0"
       gradientUnits="userSpaceOnUse" />
    <linearGradient
       gradientTransform="matrix(0.29652528,0,0,-0.29652528,0.91113935,15.119926)"
       gradientUnits="userSpaceOnUse"
       xlink:href="#linearGradient1127"
       id="m"
       y2="23"
       x2="47.5"
       y1="23"
       x1="4.4899998" />
    <linearGradient
       inkscape:collect="always"
       id="linearGradient1127">
      <stop
         style="stop-color:#ffffff;stop-opacity:1;"
         offset="0"
         id="stop1123" />
      <stop
         style="stop-color:#ffffff;stop-opacity:0;"
         offset="1"
         id="stop1125" />
    </linearGradient>
    <linearGradient
       gradientTransform="matrix(0.20967504,-0.20967504,-0.20967504,-0.20967504,7.8935299,18.495952)"
       gradientUnits="userSpaceOnUse"
       xlink:href="#linearGradient1127"
       id="l"
       y2="24.414"
       x2="2.8729999"
       y1="25.827999"
       x1="48.126999" />
    <linearGradient
       gradientTransform="matrix(0,0.29652528,0.29652528,0,1.653106,0.73824539)"
       gradientUnits="userSpaceOnUse"
       xlink:href="#linearGradient1127"
       id="j"
       y2="23"
       x2="47.5"
       y1="23"
       x1="3.5" />
    <linearGradient
       gradientTransform="matrix(0.20967504,0.20967504,-0.20967504,0.20967504,7.9487193,-2.8696424)"
       gradientUnits="userSpaceOnUse"
       xlink:href="#linearGradient1127"
       id="k"
       y2="27.243"
       x2="4.2870002"
       y1="23.707001"
       x1="46.006001" />
    <linearGradient
       inkscape:collect="always"
       id="linearGradient1333">
      <stop
         style="stop-color:#b491dd;stop-opacity:1;"
         offset="0"
         id="stop1329" />
      <stop
         style="stop-color:#7253e1;stop-opacity:1;"
         offset="1"
         id="stop1331" />
    </linearGradient>
  </defs>
  <path
     id="path530"
     style="fill:url(#linearGradient3692);stroke-width:0.5;stroke-linecap:round;stroke-linejoin:round;fill-opacity:1.0"
     d="M 6 0 C 1.4494094 0 0 1.469913 0 6 L 0 10 C 0 14.530087 1.4494094 16 6 16 L 10 16 C 14.550591 16 16 14.530086 16 10 L 16 6 C 16 1.469913 14.550591 0 10 0 L 6 0 z " />
  <path
     id="path1506-3-7"
     style="fill:#ffffff;stroke-linecap:round;stroke-linejoin:round"
     d="M 3 3 A 1 1 0 0 0 2 4 A 1 1 0 0 0 3 5 A 1 1 0 0 0 4 4 A 1 1 0 0 0 3 3 z M 14 6 A 1 1 0 0 0 13 7 A 1 1 0 0 0 14 8 A 1 1 0 0 0 15 7 A 1 1 0 0 0 14 6 z M 3 11 A 1 1 0 0 0 2 12 A 1 1 0 0 0 3 13 A 1 1 0 0 0 4 12 A 1 1 0 0 0 3 11 z M 9 13 A 1 1 0 0 0 8 14 A 1 1 0 0 0 9 15 A 1 1 0 0 0 10 14 A 1 1 0 0 0 9 13 z " />
  <path
     style="color:#000000;opacity:0.8;fill:url(#j);fill-opacity:1;stroke-linecap:round;stroke-linejoin:round;-inkscape-stroke:none"
     d="M 8.4634599,1.4251794 A 0.5,0.5 0 0 0 7.965413,1.9271325 0.5,0.5 0 0 0 8.4693192,2.4251794 c 0.497678,-0.00255 0.972366,0.3848398 1.396484,1.2128907 0.4241188,0.8280508 0.7297438,2.027621 0.8574228,3.3203124 0.255357,2.5853829 -0.256271,5.5413525 -1.4199228,6.7734375 a 0.5,0.5 0 0 0 0.01953,0.707031 0.5,0.5 0 0 0 0.7070318,-0.02148 C 11.598099,12.756908 11.992958,9.6311995 11.719319,6.8607263 11.5825,5.4754897 11.264983,4.1777556 10.754476,3.1810388 10.243968,2.184322 9.4738092,1.4200083 8.4634599,1.4251794 Z"
     id="path105" />
  <path
     style="color:#000000;opacity:0.8;fill:url(#k);fill-opacity:1;stroke-linecap:round;stroke-linejoin:round;-inkscape-stroke:none"
     d="M 3.5865068,3.3023295 A 0.5,0.5 0 0 0 3.0513505,3.7652201 c -0.081115,1.1335835 0.3909554,2.3333405 1.1230469,3.4902343 0.7320914,1.1568939 1.7424911,2.2747265 2.8359375,3.2031246 1.0934463,0.928398 2.2648173,1.668111 3.3632811,2.044922 1.098464,0.376811 2.223361,0.394991 2.960938,-0.341797 a 0.5,0.5 0 0 0 0,-0.707031 0.5,0.5 0 0 0 -0.707032,0 c -0.367824,0.367431 -1.009695,0.417151 -1.929687,0.101563 C 9.7778432,11.240647 8.6789804,10.56278 7.6568192,9.6949069 6.6346581,8.8270353 5.6848642,7.7707968 5.0201005,6.7202982 4.3553368,5.6697996 3.9927116,4.6296682 4.0493974,3.8374857 A 0.5,0.5 0 0 0 3.5865068,3.3023295 Z"
     id="path109" />
  <path
     style="color:#000000;opacity:0.8;fill:url(#l);fill-opacity:1;stroke-linecap:round;stroke-linejoin:round;-inkscape-stroke:none"
     d="M 12.315022,2.9447107 C 11.872048,2.8439193 11.377353,2.8645641 10.887288,2.9759607 9.9071582,3.1987538 8.8433848,3.7509043 7.8013505,4.5033044 5.7172819,6.0081047 3.7207705,8.3063569 3.1275224,10.630257 a 0.5,0.5 0 0 0 0.3613281,0.607422 0.5,0.5 0 0 0 0.6074219,-0.361328 C 4.5913042,8.9371885 6.4570933,6.707547 8.387288,5.3138513 9.3523852,4.6170034 10.332952,4.127188 11.109944,3.9505701 11.886937,3.7739521 12.359,3.8803921 12.639241,4.2493982 a 0.5,0.5 0 0 0 0.701172,0.095703 0.5,0.5 0 0 0 0.0957,-0.6992187 C 13.149848,3.2689408 12.757997,3.045502 12.315022,2.9447107 Z"
     id="path113" />
  <path
     style="color:#000000;fill:url(#m);fill-opacity:1;stroke-linecap:round;stroke-linejoin:round;-inkscape-stroke:none"
     d="M 6.5259599,5.1126794 C 5.200882,5.2932431 3.990413,5.6413176 3.0806474,6.1732263 2.1708818,6.705135 1.5049092,7.5095226 1.6079911,8.4837732 A 0.5,0.5 0 0 0 2.1568192,8.9290857 0.5,0.5 0 0 0 2.6021318,8.3783044 C 2.5514266,7.8990782 2.8502119,7.4658519 3.5845536,7.0365075 4.3188953,6.6071632 5.4291485,6.2707364 6.6607255,6.1029138 9.1238795,5.7672685 12.077542,6.1280068 13.611897,7.2298669 A 0.5,0.5 0 0 0 14.309163,7.1146325 0.5,0.5 0 0 0 14.193929,6.4173669 C 12.276865,5.0406741 9.1761162,4.751552 6.5259599,5.1126794 Z"
     id="path117" />
</svg>
